X: 39093
T: Sweeney's Dream
R: reel
M: 4/4
K: Dmajor
dF~F2 ABdf|gfeg fdBc|dF~F2 AddB|AFDF ~E2D2:|
fa~a2 afdf|gfed (3Bcd eg|fa~a2 bfaf|gfeg fdde|
fa~a2 bfaf|gfeg fdBc|dF~F2 ABdf|gfeg ~f3e||

